X: 9
T: Hornpipe
T: Good for the Tongue
T: Jenkins' hornpipe
T: Washington hornpipe
R: hornpipe, reel
M: C|
L: 1/8
N: This tune was in smallpiper Joe Hutton's repertoire as the Washington Hornpipe (in G);
N: the fiddle original is in Bb. Some passages in strain 2 here are a little different from
N: versions usually heard.
Z: 2010 John Chambers <jc:trillian.mit.edu>
B: Anonymous manuscript tune book (1800-1840) p.12
F: http://www.asaplive.com/archive/browse_by_collection.asp
N: The asaplive.com web site is complex, and links to its files don't usually work.
K: C
|: cdef gcBc | acbc c'cBc | Af Ge Fd Ec | Acfd cBAG |
   cdef gcBc | acbc c'cBc | Af Ge Fd Ec | edcB c4  :|
|: gcBc acBc | abc'b a^gae | a^gae fefc | Bdfd cBAG |
   cdef gcBc | acbc c'cBc | Af Ge Fd Ec | edcB c4  :|


%%sep 5 1 500

